Catalina-dark/actions/22/text_letter_spacing.svg

<svg viewBox="0 0 22 22" xmlns="http://www.w3.org/2000/svg">
<defs>
<style id="current-color-scheme" type="text/css">.ColorScheme-Text {
        color:#f2f2f2;
      }
      .ColorScheme-Highlight {
        color:#3daee9;
      }</style>
</defs>
<path class="ColorScheme-Text" d="m3 3v6h3c1.108 0 2-0.892 2-2 0-0.81094-0.48126-1.5019-1.1719-1.8164 0.10595-0.20585 0.17188-0.43528 0.17188-0.68359 0-0.831-0.669-1.5-1.5-1.5h-2.5zm11 0v6h3c1.108 0 2-0.89199 2-2v-2c0-1.108-0.89199-2-2-2h-3zm-10 1h1.5c0.277 0 0.5 0.223 0.5 0.5s-0.223 0.5-0.5 0.5h-1.5v-1zm11 0h2c0.55401 0 1 0.44599 1 1v2c0 0.55401-0.44599 1-1 1h-2v-4zm-11 2h2c0.554 0 1 0.446 1 1s-0.446 1-1 1h-2v-2zm6 0v1h2v-1h-2zm-6 6v1h2v-1h-2zm4 0v1h2v-1h-2zm4 0v1h2v-1h-2zm4 0v1h2v-1h-2zm-11 3-2 2 2 2v-4zm12 0v4l2-2-2-2zm-6 1c-0.554 0-1 0.446-1 1s0.446 1 1 1 1-0.446 1-1-0.446-1-1-1z" fill="currentColor"/>
</svg>

<svg xmlns="http://www.w3.org/2000/svg" viewBox="0 0 22 22">
  <defs id="defs3051">
    <style type="text/css" id="current-color-scheme">
      .ColorScheme-Text {
        color:#f2f2f2;
      }
      .ColorScheme-Highlight {
        color:#3daee9;
      }
      </style>
  </defs>
 <path 
     style="fill:currentColor;fill-opacity:1;stroke:none" 
     d="M 3 3 L 3 5 L 3 6 L 3 8 L 3 9 L 4 9 L 6 9 C 7.108 9 8 8.108 8 7 C 8 6.18906 7.518735 5.4981037 6.828125 5.1835938 C 6.934075 4.9777437 7 4.74831 7 4.5 C 7 3.669 6.331 3 5.5 3 L 4 3 L 3 3 z M 14 3 L 14 9 L 16 9 L 17 9 C 18.10801 9 19 8.10801 19 7 L 19 5 C 19 3.89199 18.10801 3 17 3 L 16 3 L 14 3 z M 4 4 L 5.5 4 C 5.777 4 6 4.223 6 4.5 C 6 4.777 5.777 5 5.5 5 L 4 5 L 4 4 z M 15 4 L 16 4 L 17 4 C 17.55401 4 18 4.44599 18 5 L 18 7 C 18 7.55401 17.55401 8 17 8 L 16 8 L 15 8 L 15 4 z M 4 6 L 5.5 6 L 6 6 C 6.554 6 7 6.446 7 7 C 7 7.554 6.554 8 6 8 L 4 8 L 4 6 z M 10 6 L 10 7 L 12 7 L 12 6 L 10 6 z M 4 12 L 4 13 L 6 13 L 6 12 L 4 12 z M 8 12 L 8 13 L 10 13 L 10 12 L 8 12 z M 12 12 L 12 13 L 14 13 L 14 12 L 12 12 z M 16 12 L 16 13 L 18 13 L 18 12 L 16 12 z M 5 15 L 3 17 L 5 19 L 5 15 z M 17 15 L 17 19 L 19 17 L 17 15 z M 11 16 C 10.446 16 10 16.446 10 17 C 10 17.554 10.446 18 11 18 C 11.554 18 12 17.554 12 17 C 12 16.446 11.554 16 11 16 z "
     class="ColorScheme-Text"
     />
</svg>
